school/img/country/EU.svg

<svg width="13" height="12" viewBox="0 0 13 12" fill="none" xmlns="http://www.w3.org/2000/svg">
<rect width="13" height="12" rx="2" fill="white"/>
<mask id="mask0" mask-type="alpha" maskUnits="userSpaceOnUse" x="0" y="0" width="13" height="12">
<rect width="13" height="12" rx="2" fill="white"/>
</mask>
<g mask="url(#mask0)">
<rect width="13" height="12" fill="#043CAE"/>
<path fill-rule="evenodd" clip-rule="evenodd" d="M6.0623 2.56568L6.50003 2.4L6.93777 2.56568L6.80956 2L6.93777 1.43431L6.50003 1.6L6.0623 1.43431L6.19051 2L6.0623 2.56568ZM6.0623 10.5657L6.50003 10.4L6.93777 10.5657L6.80956 10L6.93777 9.43431L6.50003 9.6L6.0623 9.43431L6.19051 10L6.0623 10.5657ZM9.59529 6.4L9.15756 6.56569L9.28577 6L9.15756 5.43432L9.59529 5.6L10.033 5.43432L9.90482 6L10.033 6.56569L9.59529 6.4ZM2.96704 6.56569L3.40477 6.4L3.84251 6.56569L3.7143 6L3.84251 5.43432L3.40477 5.6L2.96704 5.43432L3.09525 6L2.96704 6.56569ZM9.18056 4.4L8.74283 4.56568L8.87103 4L8.74283 3.43431L9.18056 3.6L9.61829 3.43431L9.49008 4L9.61829 4.56568L9.18056 4.4ZM3.38171 8.56568L3.81944 8.4L4.25718 8.56568L4.12897 8L4.25718 7.43431L3.81944 7.6L3.38171 7.43431L3.50992 8L3.38171 8.56568ZM8.04763 2.9359L7.6099 3.10158L7.73811 2.5359L7.6099 1.97021L8.04763 2.1359L8.48536 1.97021L8.35715 2.5359L8.48536 3.10158L8.04763 2.9359ZM4.5147 10.0298L4.95244 9.8641L5.39017 10.0298L5.26196 9.4641L5.39017 8.89841L4.95244 9.0641L4.5147 8.89841L4.64291 9.4641L4.5147 10.0298ZM9.18056 8.4L8.74283 8.56568L8.87103 8L8.74283 7.43431L9.18056 7.6L9.61829 7.43431L9.49008 8L9.61829 8.56568L9.18056 8.4ZM3.38171 4.56568L3.81944 4.4L4.25718 4.56568L4.12897 4L4.25718 3.43431L3.81944 3.6L3.38171 3.43431L3.50992 4L3.38171 4.56568ZM8.04763 9.8641L7.6099 10.0298L7.73811 9.4641L7.6099 8.89841L8.04763 9.0641L8.48536 8.89841L8.35715 9.4641L8.48536 10.0298L8.04763 9.8641ZM4.5147 3.10158L4.95244 2.9359L5.39017 3.10158L5.26196 2.5359L5.39017 1.97021L4.95244 2.1359L4.5147 1.97021L4.64291 2.5359L4.5147 3.10158Z" fill="#FFD429"/>
</g>
</svg>

<svg width="13" height="12" fill="none" xmlns="http://www.w3.org/2000/svg"><rect width="13" height="12" rx="2" fill="#fff"/><mask id="a" maskUnits="userSpaceOnUse" x="0" y="0" width="13" height="12"><rect width="13" height="12" rx="2" fill="#fff"/></mask><g mask="url(#a)"><path fill="#043CAE" d="M0 0h13v12H0z"/><path fill-rule="evenodd" clip-rule="evenodd" d="M6.062 2.566L6.5 2.4l.438.166L6.81 2l.128-.566L6.5 1.6l-.438-.166.129.566-.129.566zm0 8L6.5 10.4l.438.166L6.81 10l.128-.566L6.5 9.6l-.438-.166.129.566-.129.566zM9.595 6.4l-.437.166L9.286 6l-.128-.566.437.166.438-.166L9.905 6l.128.566-.438-.166zm-6.628.166l.438-.166.438.166L3.714 6l.129-.566-.438.166-.438-.166.128.566-.128.566zM9.181 4.4l-.438.166L8.87 4l-.128-.566.438.166.437-.166L9.49 4l.128.566-.437-.166zm-5.8 4.166L3.82 8.4l.438.166L4.13 8l.128-.566-.438.166-.437-.166L3.51 8l-.128.566zm4.667-5.63l-.438.166.128-.566-.128-.566.438.166.437-.166-.128.566.128.566-.437-.166zM4.515 10.03l.437-.166.438.166-.128-.566.128-.566-.438.166-.437-.166.128.566-.128.566zM9.18 8.4l-.438.166L8.87 8l-.128-.566.438.166.437-.166L9.49 8l.128.566-.437-.166zm-5.8-3.834l.44-.166.438.166L4.13 4l.128-.566-.438.166-.437-.166L3.51 4l-.128.566zm4.667 5.298l-.438.166.128-.566-.128-.566.438.166.437-.166-.128.566.128.566-.437-.166zM4.515 3.102l.437-.166.438.166-.128-.566.128-.566-.438.166-.437-.166.128.566-.128.566z" fill="#FFD429"/></g></svg>
